resources/svg/image.svg

<svg xmlns="http://www.w3.org/2000/svg" viewBox="0 0 15 15" fill="currentColor"><path d="M10.5 3C9.67157 3 9 3.67157 9 4.5C9 5.32843 9.67157 6 10.5 6C11.3284 6 12 5.32843 12 4.5C12 3.67157 11.3284 3 10.5 3Z" fill="black"/><path fill-rule="evenodd" clip-rule="evenodd" d="M0 1.5C0 0.671573 0.671573 0 1.5 0H13.5C14.3284 0 15 0.671573 15 1.5V13.5C15 13.6035 14.9895 13.7047 14.9695 13.8023C14.9399 13.9468 14.8896 14.0838 14.8217 14.2099C14.5685 14.6803 14.0716 15 13.5 15H1.5C0.671573 15 0 14.3284 0 13.5V1.5ZM4.84923 3.14214L4.5 2.79291L1 6.29291V1.5C1 1.22386 1.22386 1 1.5 1H13.5C13.7761 1 14 1.22386 14 1.5V10H11.7071L4.85359 3.14645C4.85215 3.145 4.85069 3.14357 4.84923 3.14214Z" fill="black"/></svg>

<svg xmlns="http://www.w3.org/2000/svg" viewBox="0 0 15 15" fill="currentColor"><path d="M10.5 3a1.5 1.5 0 100 3 1.5 1.5 0 000-3z" fill="currentColor"/><path fill-rule="evenodd" clip-rule="evenodd" d="M0 1.5A1.5 1.5 0 011.5 0h12A1.5 1.5 0 0115 1.5v12a1.505 1.505 0 01-.178.71A1.5 1.5 0 0113.5 15h-12A1.5 1.5 0 010 13.5v-12zm4.85 1.642l-.35-.35-3.5 3.5V1.5a.5.5 0 01.5-.5h12a.5.5 0 01.5.5V10h-2.293L4.854 3.146l-.005-.004z" fill="currentColor"/></svg>
